Catalina-light/actions/16/document-edit-decrypt-verify.svg

<svg xmlns="http://www.w3.org/2000/svg" width="16" height="16" viewBox="0 0 16 16">
 <defs>
  <style id="current-color-scheme" type="text/css">
   .ColorScheme-Text { color:#5c616c; } .ColorScheme-Highlight { color:#5294e2; }
  </style>
 </defs>
 <path style="fill:currentColor" class="ColorScheme-Text" d="M 2 1.9902344 L 2 3.9902344 L 4 3.9902344 L 4 1.9902344 L 2 1.9902344 z M 7 1.9902344 L 7 3.9902344 L 9 3.9902344 L 9 1.9902344 L 7 1.9902344 z M 12 1.9902344 L 12 3.9902344 L 14 3.9902344 L 14 1.9902344 L 12 1.9902344 z M 4 4.9902344 L 4 6.9902344 L 6 6.9902344 L 6 4.9902344 L 4 4.9902344 z M 10 4.9902344 L 10 6.9902344 L 12 6.9902344 L 12 4.9902344 L 10 4.9902344 z M 2 7.9902344 L 2 14 C 2 15 3 15 3 15 L 13 15 C 13 15 14 15 14 14 L 14 8.0097656 L 12 8.0097656 L 12 12.996094 L 4 12.996094 L 4 7.9902344 L 2 7.9902344 z M 10 7.9902344 L 7 10.990234 L 6 9.9902344 L 5 10.990234 L 6 11.990234 L 7 12.990234 L 11 8.9902344 L 10 7.9902344 z"/>
</svg>

<svg width="16" height="16" viewBox="0 0 16 16" xmlns="http://www.w3.org/2000/svg">
<defs>
<style id="current-color-scheme" type="text/css">.ColorScheme-Text { color:#5c616c; } .ColorScheme-Highlight { color:#5294e2; }</style>
</defs>
<path class="ColorScheme-Text" d="m2 1.9902v2h2v-2h-2zm5 0v2h2v-2h-2zm5 0v2h2v-2h-2zm-8 3v2h2v-2h-2zm6 0v2h2v-2h-2zm-8 3v6.0098c0 1 1 1 1 1h10s1 0 1-1v-5.9902h-2v4.9863h-8v-5.0059h-2zm8 0-3 3-1-1-1 1 2 2 4-4-1-1z" fill="currentColor"/>
</svg>
